X: 3
T: The Crib Of Perches
R: reel
M: 4/4
L: 1/8
K: Dmaj
A3B AGFD|(3EFG AB c2cA|(3GAG EC G,CEG|cG~G2 AGFG|~A3B AGFD|(3EFG AB c2cA|df~f2 e^cdB|AFGE FDD2:||:df~f2 af~f2|bfaf gfed|cdef ge~e2|gecA GABz|df~f2 af~f2|d2fd edcA|(3Bcd ec decB|1AFGE D4:|


Tune 1366	Setting 28855

